shader_type canvas_item;

uniform vec4 line_color: source_color = vec4(1.);
uniform float line_thickness: hint_range(0.0, 1.0) = 0.5;
const float max_line_thickness = 2.;

void fragment() {
	vec4 color = texture(TEXTURE, UV);
	if (line_thickness > 0.) {
		vec2 size = TEXTURE_PIXEL_SIZE * line_thickness * max_line_thickness;
		float outline = color.a;
		
		for (float y = -1.0; y <= 1.; y++) {
			for (float x = -1.0; x <= 1.0; x++)
			{
				vec2 offset = vec2(x, y) * size;
				outline += texture(TEXTURE, UV + offset).a;
			}
		}
		outline = min(outline, 1.);
		COLOR = mix(color, line_color, outline - color.a);	
	}
}